{
  "compressionlevel": -1,
  "height": 4,
  "infinite": false,
  "layers": [
    {
      "data": [
        1, 2, 3, 10,
        1, 2, 3, 4,
        1, 2, 3, 4,
        1, 2, 3, 4
      ],
      "height": 4,
      "id": 1,
      "name": "ground",
      "opacity": 1,
      "type": "tilelayer",
      "visible": true,
      "width": 4,
      "x": 0,
      "y": 0,
      "properties": []
    },
    {
      "draworder": "topdown",
      "id": 2,
      "name": "entities",
      "objects": [
        {
          "id": 1,
          "name": "player_spawn",
          "type": "spawnpoint",
          "visible": true,
          "x": 16,
          "y": 16,
          "properties": []
        },
        {
          "id": 1,
          "name": "duplicate_id_obj",
          "type": "npc",
          "visible": true,
          "x": 32,
          "y": 32,
          "properties": []
        }
      ],
      "opacity": 1,
      "type": "objectgroup",
      "visible": true,
      "x": 0,
      "y": 0
    }
  ],
  "nextlayerid": 3,
  "nextobjectid": 3,
  "orientation": "orthogonal",
  "renderorder": "right-down",
  "tiledversion": "1.10.1",
  "tileheight": 8,
  "tilewidth": 8,
  "tilesets": [
    {
      "firstgid": 1,
      "source": "../clean/tileset.tsj"
    }
  ],
  "type": "map",
  "version": "1.10",
  "width": 4,
  "properties": []
}
