{
  "compressionlevel": -1,
  "height": 16,
  "infinite": true,
  "layers": [
    {
      "chunks": [
        {
          "data": [
            1, 2, 3, 4,
            1, 2, 3, 4,
            1, 2, 3, 4,
            1, 2, 3, 4
          ],
          "height": 4,
          "width": 4,
          "x": 0,
          "y": 0
        },
        {
          "data": [
            4, 3, 2, 1,
            4, 3, 2, 1,
            4, 3, 2, 1,
            4, 3, 2, 1
          ],
          "height": 4,
          "width": 4,
          "x": 4,
          "y": 0
        }
      ],
      "id": 1,
      "name": "ground",
      "opacity": 1,
      "type": "tilelayer",
      "visible": true,
      "width": 16,
      "height": 16,
      "x": 0,
      "y": 0,
      "properties": [
        {
          "name": "is_walkable",
          "type": "bool",
          "value": true
        }
      ]
    },
    {
      "draworder": "topdown",
      "id": 2,
      "name": "entities",
      "objects": [],
      "opacity": 1,
      "type": "objectgroup",
      "visible": true,
      "x": 0,
      "y": 0
    }
  ],
  "nextlayerid": 3,
  "nextobjectid": 1,
  "orientation": "orthogonal",
  "renderorder": "right-down",
  "tiledversion": "1.10.1",
  "tileheight": 8,
  "tilewidth": 8,
  "tilesets": [
    {
      "firstgid": 1,
      "source": "tileset.tsj"
    }
  ],
  "type": "map",
  "version": "1.10",
  "width": 16,
  "properties": [
    {
      "name": "difficulty",
      "type": "string",
      "value": "normal"
    }
  ]
}
